src/1-subject/walk.svg

<svg width="1300" height="1000" fill="none" xmlns="http://www.w3.org/2000/svg"><path d="M400 472.01c.285-1.638 13.472-48.964 31-84.998 18.5-33.499 31-47.499 72.5-46.999 6 .072 11.994 4 14.5 9.5 18 39.499 67 182.996 67 182.996l14.111 14.317c10.929 11.09 10.645 28.985-.63 39.723a.836.836 0 0 1-1.036.093l-42.392-27.94a5.016 5.016 0 0 1-1.651-1.804l-9.902-18.39 3.5 22 60 156.496 10 139.997 17.55 2.257c9.978 1.282 17.45 9.777 17.45 19.836v1.907L586 900h-34l-1.5-7.5a6.636 6.636 0 0 1-6.603-5.969L529.5 744.004 491 664.506l-19 79.498-73 131.997 8.372 4.751a20 20 0 0 1 10.128 17.394V900H355l-32-17.999 10.5-15a6.831 6.831 0 0 1-2.084-8.861L393.5 744.004l31-167.996-33.712 48.088a.925.925 0 0 1-.789.392c-12.692-.479-21.098-13.363-16.423-25.173L383 575.508s9-57.499 17-103.498Z" fill="#fff"/><path d="M632.921 865.273 609.5 863.47 598 716.889l-59-156.087c-14.676-166.492-27.563-204.128-32.668-212.635-1.199-1.999-3.466-2.737-5.787-2.948-10.284-.933-41.184-.461-60.546 34.998C421.321 414.423 406 471.752 406 471.752l-17 104.559-10.228 27.63c-2.313 6.25 2.31 12.892 8.974 12.892a.476.476 0 0 0 .396-.21l27.358-40.312 21.5-59.534 34.658-98.088a1.452 1.452 0 0 1 2.752.917l-30.01 95.892a6.938 6.938 0 0 0-.308 2.615c.68 8.523 5.84 56.657 38.408 109.726 1.5 2.444 56.5 115.564 56.5 115.564l12.982 137.104a6.045 6.045 0 0 0 6.018 5.476L560.5 900l81.672-23.703-.02-1.221a10 10 0 0 0-9.231-9.803Z" fill="#000"/><path d="M480.324 340c3.926 1.471 11.257 1.995 13.176 2 0 0 8.646-.072 13.682-2 5.676-2.172 8.837-4.293 12.669-8.96 2.619-3.188 4.662-8.697 5.57-11.42.358-1.076.606-2.181.795-3.3l4.277-25.32s.516-3.649.507-6c-.02-5.591-.777-8.874-3.041-14-2.325-5.265-4.358-8.083-8.614-12-4.537-4.176-7.807-6-13.683-7.968-4.561-1.528-7.345-1.993-12.162-2.032-5.17.175-7.095.5-12.029 2.032-4.938 1.649-9.979 4.57-13.816 7.968-3.836 3.398-6.521 7.42-8.614 12-2.094 4.58-3.039 9.002-3.041 14 .001 1.885.208 4.137.507 6l5.084 24.993a24.33 24.33 0 0 0 1.005 3.605c1.072 2.894 3.346 8.603 5.566 11.402 3.047 3.841 7.466 7.241 12.162 9Z" fill="#fff"/><path d="M482.432 334.258c3.298 1.281 9.456 1.738 11.068 1.742 0 0 7.263-.063 11.493-1.742 4.767-1.892 7.423-3.739 10.642-7.804 2.15-2.714 3.839-7.36 4.625-9.782.339-1.045.572-2.118.748-3.202l3.566-21.889s.433-3.178.426-5.226c-.017-4.87-.652-7.729-2.554-12.194-1.953-4.585-3.662-7.039-7.237-10.451-3.811-3.637-6.558-5.226-11.493-6.94-3.832-1.331-6.17-1.736-10.216-1.77-4.342.152-5.959.435-10.104 1.77-4.148 1.436-8.383 3.98-11.605 6.94-3.223 2.959-5.478 6.462-7.237 10.451-1.759 3.99-2.552 7.841-2.554 12.194 0 1.641.175 3.603.426 5.226l4.234 21.584c.234 1.19.535 2.363.946 3.504.924 2.57 2.789 7.37 4.61 9.75 2.56 3.346 6.272 6.307 10.216 7.839Zm-78.048 552.503L389.5 879.5 463 744s25.802-94.5 23-99c-49.5-79.5-45-122.5-45-122.5L402 744l-62.158 113.797a6.817 6.817 0 0 0 1.916 8.74L333 879.5l37 20.5h40v-4.252a10 10 0 0 0-5.616-8.987ZM513 351s23 83.5 27 166c.17 3.507 20.95 36.622 20.95 36.622l34.098 23.565a.71.71 0 0 0 .868-.046c5.873-5.073 6.593-13.918 1.618-19.873L578.5 534.485 556 468l-43-117Z" fill="#000"/></svg>

<svg width="1300" height="1000" viewBox="0 0 1300 1000" fill="none" xmlns="http://www.w3.org/2000/svg">
<path d="M400 472.01C400.285 470.372 413.472 423.046 431 387.012C449.5 353.513 462 339.513 503.5 340.013C509.5 340.085 515.494 344.013 518 349.513C536 389.012 585 532.509 585 532.509L599.111 546.826C610.04 557.916 609.756 575.811 598.481 586.549C598.2 586.817 597.77 586.856 597.445 586.642L555.053 558.702C554.362 558.246 553.795 557.626 553.402 556.898L543.5 538.508L547 560.508L607 717.004L617 857.001L634.55 859.258C644.528 860.54 652 869.035 652 879.094V881.001L586 900H552L550.5 892.5C547.093 892.5 544.239 889.921 543.897 886.531L529.5 744.004L491 664.506L472 744.004L399 876.001L407.372 880.752C413.632 884.305 417.5 890.948 417.5 898.146V900H355L323 882.001L333.5 867.001C330.652 865.008 329.755 861.193 331.416 858.14L393.5 744.004L424.5 576.008L390.788 624.096C390.608 624.352 390.311 624.499 389.999 624.488C377.307 624.009 368.901 611.125 373.576 599.315L383 575.508C383 575.508 392 518.009 400 472.01Z" fill="white"/>
<path d="M632.921 865.273L609.5 863.47L598 716.889L539 560.802C524.324 394.31 511.437 356.674 506.332 348.167C505.133 346.168 502.866 345.43 500.545 345.219C490.261 344.286 459.361 344.758 439.999 380.217C421.321 414.423 406 471.752 406 471.752L389 576.311L378.772 603.941C376.459 610.191 381.082 616.833 387.746 616.833C387.905 616.833 388.053 616.755 388.142 616.623L415.5 576.311L437 516.777L471.658 418.689C471.863 418.11 472.411 417.722 473.026 417.722C474.004 417.722 474.702 418.672 474.41 419.606L444.4 515.498C444.136 516.344 444.022 517.229 444.092 518.113C444.772 526.636 449.932 574.77 482.5 627.839C484 630.283 539 743.403 539 743.403L551.982 880.507C552.275 883.611 554.882 885.983 558 885.983L560.5 900L642.172 876.297L642.152 875.076C642.066 869.916 638.067 865.669 632.921 865.273Z" fill="black"/>
<path d="M480.324 340C484.25 341.471 491.581 341.995 493.5 342C493.5 342 502.146 341.928 507.182 340C512.858 337.828 516.019 335.707 519.851 331.04C522.47 327.852 524.513 322.343 525.421 319.62C525.779 318.544 526.027 317.439 526.216 316.32L530.493 291C530.493 291 531.009 287.351 531 285C530.98 279.409 530.223 276.126 527.959 271C525.634 265.735 523.601 262.917 519.345 259C514.808 254.824 511.538 253 505.662 251.032C501.101 249.504 498.317 249.039 493.5 249C488.33 249.175 486.405 249.5 481.471 251.032C476.533 252.681 471.492 255.602 467.655 259C463.819 262.398 461.134 266.42 459.041 271C456.947 275.58 456.002 280.002 456 285C456.001 286.885 456.208 289.137 456.507 291L461.591 315.993C461.84 317.218 462.162 318.425 462.596 319.598C463.668 322.492 465.942 328.201 468.162 331C471.209 334.841 475.628 338.241 480.324 340Z" fill="white"/>
<path d="M482.432 334.258C485.73 335.539 491.888 335.996 493.5 336C493.5 336 500.763 335.937 504.993 334.258C509.76 332.366 512.416 330.519 515.635 326.454C517.785 323.74 519.474 319.094 520.26 316.672C520.599 315.627 520.832 314.554 521.008 313.47L524.574 291.581C524.574 291.581 525.007 288.403 525 286.355C524.983 281.485 524.348 278.626 522.446 274.161C520.493 269.576 518.784 267.122 515.209 263.71C511.398 260.073 508.651 258.484 503.716 256.77C499.884 255.439 497.546 255.034 493.5 255C489.158 255.152 487.541 255.435 483.396 256.77C479.248 258.206 475.013 260.75 471.791 263.71C468.568 266.669 466.313 270.172 464.554 274.161C462.795 278.151 462.002 282.002 462 286.355C462 287.996 462.175 289.958 462.426 291.581L466.66 313.165C466.894 314.355 467.195 315.528 467.606 316.669C468.53 319.239 470.395 324.039 472.216 326.419C474.776 329.765 478.488 332.726 482.432 334.258Z" fill="black"/>
<path d="M404.384 886.761L389.5 879.5L463 744C463 744 488.802 649.5 486 645C436.5 565.5 441 522.5 441 522.5L402 744L339.842 857.797C338.212 860.781 339.029 864.509 341.758 866.537L333 879.5L370 900H410V895.748C410 891.925 407.82 888.437 404.384 886.761Z" fill="black"/>
<path d="M513 351C513 351 536 434.5 540 517C540.17 520.507 560.95 553.622 560.95 553.622L595.048 577.187C595.314 577.371 595.671 577.352 595.916 577.141C601.789 572.068 602.509 563.223 597.534 557.268L578.5 534.485L556 468L513 351Z" fill="black"/>
</svg>
